src/assets/img/loading-sollar.svg

<svg id="egu8crvndg41" xmlns="http://www.w3.org/2000/svg" xmlns:xlink="http://www.w3.org/1999/xlink" viewBox="0 0 119.700000 119.701000" shape-rendering="geometricPrecision" text-rendering="geometricPrecision"><style>#egu8crvndg44 {animation: egu8crvndg44_c_o 3000ms linear infinite alternate forwards}@keyframes egu8crvndg44_c_o { 0% {opacity: 0} 6.666667% {opacity: 1} 100% {opacity: 1} }#egu8crvndg45 {animation: egu8crvndg45_c_o 3000ms linear infinite alternate forwards}@keyframes egu8crvndg45_c_o { 0% {opacity: 0} 80% {opacity: 0} 90% {opacity: 1} 100% {opacity: 1} }#egu8crvndg46 {animation: egu8crvndg46_c_o 3000ms linear infinite alternate forwards}@keyframes egu8crvndg46_c_o { 0% {opacity: 0} 70% {opacity: 0} 80% {opacity: 1} 100% {opacity: 1} }#egu8crvndg47 {animation: egu8crvndg47_c_o 3000ms linear infinite alternate forwards}@keyframes egu8crvndg47_c_o { 0% {opacity: 0} 60% {opacity: 0} 70% {opacity: 1} 100% {opacity: 1} }#egu8crvndg48 {animation: egu8crvndg48_c_o 3000ms linear infinite alternate forwards}@keyframes egu8crvndg48_c_o { 0% {opacity: 0} 50% {opacity: 0} 60% {opacity: 1} 100% {opacity: 1} }#egu8crvndg49 {animation: egu8crvndg49_c_o 3000ms linear infinite alternate forwards}@keyframes egu8crvndg49_c_o { 0% {opacity: 0} 40% {opacity: 0} 50% {opacity: 1} 100% {opacity: 1} }#egu8crvndg410 {animation: egu8crvndg410_c_o 3000ms linear infinite alternate forwards}@keyframes egu8crvndg410_c_o { 0% {opacity: 0} 30% {opacity: 0} 40% {opacity: 1} 100% {opacity: 1} }#egu8crvndg411 {animation: egu8crvndg411_c_o 3000ms linear infinite alternate forwards}@keyframes egu8crvndg411_c_o { 0% {opacity: 0} 20% {opacity: 0} 30% {opacity: 1} 100% {opacity: 1} }#egu8crvndg412 {animation: egu8crvndg412_c_o 3000ms linear infinite alternate forwards}@keyframes egu8crvndg412_c_o { 0% {opacity: 0} 10% {opacity: 0} 20% {opacity: 1} 100% {opacity: 1} }</style><g id="egu8crvndg42" transform="matrix(1 0 0 1 -196.15000000000001 -320.25000000000000)"><g id="egu8crvndg43" transform="matrix(1 0 0 1 -773.58199999999999 16)"><circle id="egu8crvndg44" r="26.276000" transform="matrix(1 0 0 1 1029.95599999999990 364.10200000000003)" opacity="0" fill="rgb(246,229,141)" stroke="rgb(249,202,36)" stroke-width="6" stroke-linecap="round" stroke-linejoin="round" stroke-miterlimit="10"/><path id="egu8crvndg45" d="M91.859000,71.617000L91.859000,71.617000C90.228395,73.237271,87.595605,73.237271,85.965000,71.617000L80.070000,65.723000C78.449729,64.092395,78.449729,61.459605,80.070000,59.829000L80.070000,59.829000C81.700605,58.208729,84.333395,58.208729,85.964000,59.829000L91.858000,65.723000C93.478547,67.353330,93.478994,69.986120,91.859000,71.617000Z" transform="matrix(1 0 0 1 912.82399999999996 264.99200000000002)" opacity="0" fill="rgb(249,202,36)" stroke="none" stroke-width="1"/><path id="egu8crvndg46" d="M93.157000,80.329000L93.157000,80.329000C93.150961,82.629293,91.288290,84.492857,88.988000,84.500000L72.312000,84.500000C70.012488,84.492863,68.150137,82.630512,68.143000,80.331000L68.143000,80.331000C68.150137,78.031488,70.012488,76.169137,72.312000,76.162000L88.988000,76.162000C91.286962,76.168585,93.149311,78.030042,93.157000,80.329000Z" transform="matrix(1 0 0 1 901.58900000000006 283.39600000000002)" opacity="0" fill="rgb(249,202,36)" stroke="none" stroke-width="1"/><path id="egu8crvndg47" d="M91.859000,92.419000L91.859000,92.419000C90.228395,90.798729,87.595605,90.798729,85.965000,92.419000L80.070000,98.314000C78.449729,99.944605,78.449729,102.577395,80.070000,104.208000L80.070000,104.208000C81.700605,105.828271,84.333395,105.828271,85.964000,104.208000L91.858000,98.314000C93.479210,96.683553,93.479657,94.049997,91.859000,92.419000Z" transform="matrix(1 0 0 1 912.82399999999996 299.17399999999998)" opacity="0" fill="rgb(249,202,36)" stroke="none" stroke-width="1"/><path id="egu8crvndg48" d="M99.490000,120.400000L99.490000,120.400000C97.190488,120.392863,95.328137,118.530512,95.321000,116.231000L95.321000,99.550000C95.328137,97.250488,97.190488,95.388137,99.490000,95.381000L99.490000,95.381000C101.789512,95.388137,103.651863,97.250488,103.659000,99.550000L103.659000,116.225000C103.655706,118.527082,101.792075,120.393395,99.490000,120.400000Z" transform="matrix(1 0 0 1 930.09299999999996 303.55599999999998)" opacity="0" fill="rgb(249,202,36)" stroke="none" stroke-width="1"/><path id="egu8crvndg49" d="M110.500000,92.419000L110.500000,92.419000C108.879729,94.049605,108.879729,96.682395,110.500000,98.313000L116.394000,104.207000C118.024605,105.827271,120.657395,105.827271,122.288000,104.207000L122.288000,104.207000C123.908271,102.576395,123.908271,99.943605,122.288000,98.313000L116.394000,92.419000C114.763395,90.798729,112.130605,90.798729,110.500000,92.419000Z" transform="matrix(1 0 0 1 944.73800000000006 299.17399999999998)" opacity="0" fill="rgb(249,202,36)" stroke="none" stroke-width="1"/><path id="egu8crvndg410" d="M139.373000,80.512000L139.373000,80.512000C139.365863,82.811512,137.503512,84.673863,135.204000,84.681000L118.528000,84.681000C116.228488,84.673863,114.366137,82.811512,114.359000,80.512000L114.359000,80.512000C114.366137,78.212488,116.228488,76.350137,118.528000,76.343000L135.200000,76.343000C137.500620,76.349034,139.364760,78.211386,139.373000,80.512000Z" transform="matrix(1 0 0 1 950.05899999999997 283.58800000000002)" opacity="0" fill="rgb(249,202,36)" stroke="none" stroke-width="1"/><path id="egu8crvndg411" d="M110.500000,71.617000L110.500000,71.617000C108.879729,69.986395,108.879729,67.353605,110.500000,65.723000L116.394000,59.829000C118.024605,58.208729,120.657395,58.208729,122.288000,59.829000L122.288000,59.829000C123.908271,61.459605,123.908271,64.092395,122.288000,65.723000L116.394000,71.617000C114.763395,73.237271,112.130605,73.237271,110.500000,71.617000Z" transform="matrix(1 0 0 1 944.73800000000006 264.99200000000002)" opacity="0" fill="rgb(249,202,36)" stroke="none" stroke-width="1"/><path id="egu8crvndg412" d="M99.674000,74.180000L99.674000,74.180000C97.372535,74.175608,95.507150,72.312458,95.500000,70.011000L95.500000,53.335000C95.507137,51.035488,97.369488,49.173137,99.669000,49.166000L99.669000,49.166000C101.968512,49.173137,103.830863,51.035488,103.838000,53.335000L103.838000,70.011000C103.829791,72.308117,101.971106,74.169034,99.674000,74.180000Z" transform="matrix(1 0 0 1 930.28700000000003 255.08400000000000)" opacity="0" fill="rgb(249,202,36)" stroke="none" stroke-width="1"/></g></g></svg>

<svg xmlns="http://www.w3.org/2000/svg" width="119.7" height="119.701" viewBox="0 0 119.7 119.701"><g transform="translate(-196.15 -320.25)"><g transform="translate(-773.582 16)"><circle cx="26.276" cy="26.276" r="26.276" transform="translate(1003.684 337.826)" fill="#f6e58d" stroke="#f9ca24" stroke-linecap="round" stroke-linejoin="round" stroke-miterlimit="10" stroke-width="6"/><path d="M99.49,120.4h0a4.182,4.182,0,0,1-4.169-4.169V99.55a4.182,4.182,0,0,1,4.169-4.169h0a4.182,4.182,0,0,1,4.169,4.169v16.675A4.181,4.181,0,0,1,99.49,120.4Z" transform="translate(930.093 303.556)" fill="#f9ca24"/><path d="M99.674,74.18h0A4.182,4.182,0,0,1,95.5,70.011V53.335a4.182,4.182,0,0,1,4.169-4.169h0a4.182,4.182,0,0,1,4.169,4.169V70.011A4.184,4.184,0,0,1,99.674,74.18Z" transform="translate(930.287 255.084)" fill="#f9ca24"/><path d="M139.373,80.512h0a4.182,4.182,0,0,1-4.169,4.169H118.528a4.182,4.182,0,0,1-4.169-4.169h0a4.182,4.182,0,0,1,4.169-4.169H135.2A4.184,4.184,0,0,1,139.373,80.512Z" transform="translate(950.059 283.588)" fill="#f9ca24"/><path d="M93.157,80.329h0A4.182,4.182,0,0,1,88.988,84.5H72.312a4.182,4.182,0,0,1-4.169-4.169h0a4.182,4.182,0,0,1,4.169-4.169H88.988A4.181,4.181,0,0,1,93.157,80.329Z" transform="translate(901.589 283.396)" fill="#f9ca24"/><path d="M110.5,71.617h0a4.181,4.181,0,0,1,0-5.894l5.894-5.894a4.181,4.181,0,0,1,5.894,0h0a4.181,4.181,0,0,1,0,5.894l-5.894,5.894A4.181,4.181,0,0,1,110.5,71.617Z" transform="translate(944.738 264.992)" fill="#f9ca24"/><path d="M91.859,71.617h0a4.181,4.181,0,0,1-5.894,0L80.07,65.723a4.181,4.181,0,0,1,0-5.894h0a4.181,4.181,0,0,1,5.894,0l5.894,5.894A4.181,4.181,0,0,1,91.859,71.617Z" transform="translate(912.824 264.992)" fill="#f9ca24"/><path d="M110.5,92.419h0a4.181,4.181,0,0,0,0,5.894l5.894,5.894a4.181,4.181,0,0,0,5.894,0h0a4.181,4.181,0,0,0,0-5.894l-5.894-5.894A4.181,4.181,0,0,0,110.5,92.419Z" transform="translate(944.738 299.174)" fill="#f9ca24"/><path d="M91.859,92.419h0a4.181,4.181,0,0,0-5.894,0L80.07,98.314a4.181,4.181,0,0,0,0,5.894h0a4.181,4.181,0,0,0,5.894,0l5.894-5.894A4.181,4.181,0,0,0,91.859,92.419Z" transform="translate(912.824 299.174)" fill="#f9ca24"/></g></g></svg>
